@extra/phlat-icons/symbolic/pcsx2.svg

<svg xmlns="http://www.w3.org/2000/svg" version="1.1" viewBox="0 0 16 16"><path fill="#f1f2f2" d="m1 1v14h14v-14h-14zm3 2h8v6h-6v2h6v2h-8v-6h6v-2h-6v-2z"/></svg>

<svg xmlns="http://www.w3.org/2000/svg" viewBox="0 0 16 16">
    <path fill="#f1f2f2" d="M1 1v14h14V1H1zm3 2h8v6H6v2h6v2H4V7h6V5H4V3z"/>
</svg>
